X:1792
T:Norsk Reiländer
R:Schottis
O:Norge
Z:Anton Teljebäck
M:4/4
L:1/8
K:G

|: vEG AB vcz (vc2 | c)d ef e4 | vef ed cA cd | ef ed (e/f/)e cA | EG AB vcz (vc2 | c)d ef e4 | ef ed cA cA | B2 AG A4 :|
|: vab af ga ge | f2 ec A4 | EG AB vcz (vc2 | c)d ef e3(va | a)b af ga ge | f2 ec A4 | EG AB cB AG | AB AG A4 :| 

(:musicend:)
Noras Dopvlas
R:Vals
S:Mia Gustafsson
M:3/4

(:music:)
